flaticon/dialogue/chat-25.svg

<svg xmlns="http://www.w3.org/2000/svg" width="32" height="32" viewBox="0 0 24 24">
    <path d="M 16.796875 0 L 7.199219 0 C 3.230469 0 0.00390625 3.230469 0.00390625 7.199219 L 0.00390625 12.796875 C 0.00390625 16.765625 3.230469 19.996094 7.199219 19.996094 L 7.914062 19.996094 C 10.699219 19.996094 13.320312 21.078125 15.289062 23.050781 L 16.039062 23.800781 C 16.171875 23.929688 16.34375 24 16.519531 24 C 16.605469 24 16.695312 23.984375 16.78125 23.949219 C 17.035156 23.84375 17.199219 23.597656 17.199219 23.320312 L 17.199219 19.984375 C 20.980469 19.777344 23.996094 16.632812 23.996094 12.796875 L 23.996094 7.199219 C 23.996094 3.230469 20.769531 0 16.796875 0 Z M 23.195312 12.796875 C 23.195312 16.191406 20.539062 18.96875 17.199219 19.175781 L 17.199219 17.59375 C 17.199219 17.375 17.019531 17.195312 16.796875 17.195312 C 16.578125 17.195312 16.398438 17.375 16.398438 17.59375 L 16.398438 23.027344 L 15.855469 22.484375 C 13.734375 20.363281 10.914062 19.195312 7.914062 19.195312 L 7.203125 19.195312 C 3.671875 19.195312 0.804688 16.324219 0.804688 12.796875 L 0.804688 7.199219 C 0.804688 3.671875 3.671875 0.800781 7.203125 0.800781 L 16.800781 0.800781 C 20.328125 0.800781 23.199219 3.671875 23.199219 7.199219 L 23.199219 12.796875 Z M 23.195312 12.796875"/>
    <path d="M6.800781 7.605469L12.398438 7.605469C12.621094 7.605469 12.800781 7.425781 12.800781 7.203125 12.800781 6.984375 12.621094 6.804688 12.398438 6.804688L6.800781 6.804688C6.578125 6.804688 6.402344 6.984375 6.402344 7.203125 6.402344 7.425781 6.582031 7.605469 6.800781 7.605469zM17.597656 10.003906L6.800781 10.003906C6.578125 10.003906 6.402344 10.183594 6.402344 10.402344 6.402344 10.625 6.578125 10.804688 6.800781 10.804688L17.597656 10.804688C17.820312 10.804688 18 10.625 18 10.402344 18 10.183594 17.820312 10.003906 17.597656 10.003906zM17.597656 13.203125L6.800781 13.203125C6.578125 13.203125 6.402344 13.382812 6.402344 13.601562 6.402344 13.824219 6.578125 14.003906 6.800781 14.003906L17.597656 14.003906C17.820312 14.003906 18 13.824219 18 13.601562 18 13.382812 17.820312 13.203125 17.597656 13.203125zM17.597656 13.203125"/>
</svg>

<svg xmlns="http://www.w3.org/2000/svg" width="32" height="32" viewBox="0 0 24 24">
    <path d="M16.797 0H7.199C3.23 0 .004 3.23.004 7.2v5.597c0 3.969 3.226 7.2 7.195 7.2h.715a10.35 10.35 0 0 1 7.375 3.054l.75.75a.69.69 0 0 0 .742.148.677.677 0 0 0 .418-.629v-3.336a7.207 7.207 0 0 0 6.797-7.187V7.199C23.996 3.23 20.77 0 16.796 0zm6.398 12.797c0 3.394-2.656 6.172-5.996 6.379v-1.582a.401.401 0 0 0-.8 0v5.433l-.544-.543a11.157 11.157 0 0 0-7.94-3.289h-.712a6.404 6.404 0 0 1-6.398-6.398V7.199A6.404 6.404 0 0 1 7.203.801h9.598a6.407 6.407 0 0 1 6.398 6.398v5.598zm0 0"/>
    <path d="M6.8 7.605h5.598a.401.401 0 0 0 0-.8H6.801a.401.401 0 0 0 0 .8zm0 0M17.598 10.004H6.8a.398.398 0 0 0-.399.398c0 .223.176.403.399.403h10.797a.401.401 0 0 0 0-.8zm0 0M17.598 13.203H6.8a.398.398 0 0 0-.399.399c0 .222.176.402.399.402h10.797a.401.401 0 0 0 0-.8zm0 0"/>
</svg>
